packages/ffe-icons/icons/open/400/sm/deskphone.svg

<svg xmlns="http://www.w3.org/2000/svg" height="20" viewBox="0 -960 960 960" width="20"><path d="M672-216h72v-528h-72v528ZM299.789-407Q315-407 325.5-417.289q10.5-10.29 10.5-25.5Q336-458 325.711-468.5q-10.29-10.5-25.5-10.5Q285-479 274.5-468.711q-10.5 10.29-10.5 25.5Q264-428 274.289-417.5q10.29 10.5 25.5 10.5Zm0 95Q315-312 325.5-322.289q10.5-10.29 10.5-25.5Q336-363 325.711-373.5q-10.29-10.5-25.5-10.5Q285-384 274.5-373.711q-10.5 10.29-10.5 25.5Q264-333 274.289-322.5q10.29 10.5 25.5 10.5Zm.171-216h215.757Q531-528 541.5-538.35 552-548.7 552-564v-48q0-15.3-10.338-25.65Q531.323-648 516.04-648H300.283Q285-648 274.5-637.65 264-627.3 264-612v48q0 15.3 10.338 25.65Q284.677-528 299.96-528Zm107.829 121Q423-407 433.5-417.289q10.5-10.29 10.5-25.5Q444-458 433.711-468.5q-10.29-10.5-25.5-10.5Q393-479 382.5-468.711q-10.5 10.29-10.5 25.5Q372-428 382.289-417.5q10.29 10.5 25.5 10.5Zm0 95Q423-312 433.5-322.289q10.5-10.29 10.5-25.5Q444-363 433.711-373.5q-10.29-10.5-25.5-10.5Q393-384 382.5-373.711q-10.5 10.29-10.5 25.5Q372-333 382.289-322.5q10.29 10.5 25.5 10.5Zm108-95Q531-407 541.5-417.289q10.5-10.29 10.5-25.5Q552-458 541.711-468.5q-10.29-10.5-25.5-10.5Q501-479 490.5-468.711q-10.5 10.29-10.5 25.5Q480-428 490.289-417.5q10.29 10.5 25.5 10.5Zm0 95Q531-312 541.5-322.289q10.5-10.29 10.5-25.5Q552-363 541.711-373.5q-10.29-10.5-25.5-10.5Q501-384 490.5-373.711q-10.5 10.29-10.5 25.5Q480-333 490.289-322.5q10.29 10.5 25.5 10.5ZM600-264v-432H216v432h384Zm72 120q-23 0-41.5-13.5T604-192H216q-29.7 0-50.85-21.162Q144-234.324 144-264.04v-432.243Q144-726 165.15-747T216-768h388q8-21 26.5-34.5T672-816h72q29.7 0 50.85 21.15Q816-773.7 816-744v528q0 29.7-21.15 50.85Q773.7-144 744-144h-72ZM216-264v-432 432Z"/></svg>

<svg xmlns="http://www.w3.org/2000/svg" height="20" viewBox="0 -960 960 960" width="20"><path d="M672-216h72v-528h-72v528ZM299.79-407q15.21 0 25.71-10.29t10.5-25.5q0-15.21-10.29-25.71t-25.5-10.5q-15.21 0-25.71 10.29t-10.5 25.5q0 15.21 10.29 25.71t25.5 10.5Zm0 95q15.21 0 25.71-10.29t10.5-25.5q0-15.21-10.29-25.71t-25.5-10.5q-15.21 0-25.71 10.29t-10.5 25.5q0 15.21 10.29 25.71t25.5 10.5Zm.17-216h215.76q15.28 0 25.78-10.35Q552-548.7 552-564v-48q0-15.3-10.34-25.65Q531.32-648 516.04-648H300.28q-15.28 0-25.78 10.35Q264-627.3 264-612v48q0 15.3 10.34 25.65Q284.68-528 299.96-528Zm107.83 121q15.21 0 25.71-10.29t10.5-25.5q0-15.21-10.29-25.71t-25.5-10.5q-15.21 0-25.71 10.29t-10.5 25.5q0 15.21 10.29 25.71t25.5 10.5Zm0 95q15.21 0 25.71-10.29t10.5-25.5q0-15.21-10.29-25.71t-25.5-10.5q-15.21 0-25.71 10.29t-10.5 25.5q0 15.21 10.29 25.71t25.5 10.5Zm108-95q15.21 0 25.71-10.29t10.5-25.5q0-15.21-10.29-25.71t-25.5-10.5q-15.21 0-25.71 10.29t-10.5 25.5q0 15.21 10.29 25.71t25.5 10.5Zm0 95q15.21 0 25.71-10.29t10.5-25.5q0-15.21-10.29-25.71t-25.5-10.5q-15.21 0-25.71 10.29t-10.5 25.5q0 15.21 10.29 25.71t25.5 10.5ZM600-264v-432H216v432h384Zm72 120q-23 0-41.5-13.5T604-192H216q-29.7 0-50.85-21.16Q144-234.32 144-264.04v-432.24Q144-726 165.15-747T216-768h388q8-21 26.5-34.5T672-816h72q29.7 0 50.85 21.15Q816-773.7 816-744v528q0 29.7-21.15 50.85Q773.7-144 744-144h-72ZM216-264v-432 432Z"/></svg>
